remix/Device/signal-wifi-off-fill.svg

<svg viewBox="0 0 24 24" fill="currentColor" xmlns="http://www.w3.org/2000/svg"><path d="M2.80815 1.39343L20.4858 19.0711L19.0716 20.4853L15.3889 16.8024L12.0005 21L0.689941 6.99674C1.60407 6.25747 2.59204 5.60589 3.64107 5.05479L1.39394 2.80765L2.80815 1.39343ZM12.0005 3.00003C16.2849 3.00003 20.2196 4.49687 23.3104 6.99611L17.9039 13.689L7.72504 3.51088C9.09547 3.17702 10.5273 3.00003 12.0005 3.00003Z"/></svg>

<svg viewBox="0 0 24 24" xmlns="http://www.w3.org/2000/svg"><path fill="none" d="M0 0h24v24H0Z"/><path d="M2.8 1.39l17.677 17.678 -1.42 1.41 -3.69-3.683 -3.39 4.19L.66 6.98c.91-.74 1.9-1.4 2.95-1.95L1.36 2.78 2.78 1.37Zm9.192 1.6c4.28 0 8.22 1.49 11.31 3.99l-5.41 6.693L7.71 3.49c1.37-.34 2.8-.52 4.27-.52Z"/></svg>
